X:1
T:Over the Water to Charlie
R:slide
Z:id:hn-slide-61
M:6/8
K:G
~G3 dBd|ece dBd|~G3 dBd|e2f g3|~G3 dBd|ece dBd|bag agf|e2f g3:|
bag agf|efg dBd|bag agf|e2a a3|bag agf|efg dBd|~G3 dBd|e2f g3:|
